actions/32/document-properties.svg

<?xml version="1.0" encoding="UTF-8" standalone="no"?>
<!-- Created with Inkscape (http://www.inkscape.org/) -->
<svg
   xmlns:svg="http://www.w3.org/2000/svg"
   xmlns="http://www.w3.org/2000/svg"
   xmlns:xlink="http://www.w3.org/1999/xlink"
   version="1.0"
   width="32"
   height="32"
   id="svg3330">
  <defs
     id="defs3332">
    <linearGradient
       id="linearGradient10691">
      <stop
         id="stop10693"
         style="stop-color:#000000;stop-opacity:1"
         offset="0" />
      <stop
         id="stop10695"
         style="stop-color:#000000;stop-opacity:0"
         offset="1" />
    </linearGradient>
    <radialGradient
       cx="6.702713"
       cy="73.615715"
       r="7.228416"
       fx="6.702713"
       fy="73.615715"
       id="radialGradient2538"
       xlink:href="#linearGradient10691"
       gradientUnits="userSpaceOnUse"
       gradientTransform="matrix(2.2134617,0,0,0.4842001,1.1638028,-7.1447362)" />
    <linearGradient
       id="linearGradient3397">
      <stop
         id="stop3399"
         style="stop-color:#aaaaaa;stop-opacity:1"
         offset="0" />
      <stop
         id="stop3401"
         style="stop-color:#8c8c8c;stop-opacity:1"
         offset="1" />
    </linearGradient>
    <linearGradient
       x1="25.922546"
       y1="19"
       x2="25.922546"
       y2="47.044857"
       id="linearGradient3328"
       xlink:href="#linearGradient3397"
       gradientUnits="userSpaceOnUse"
       gradientTransform="translate(-15,-17)" />
    <linearGradient
       x1="63.9995"
       y1="3.1001"
       x2="63.9995"
       y2="122.8994"
       id="linearGradient3309"
       gradientUnits="userSpaceOnUse">
      <stop
         id="stop3311"
         style="stop-color:#f6f6f6;stop-opacity:1"
         offset="0" />
      <stop
         id="stop3313"
         style="stop-color:#d2d2d2;stop-opacity:1"
         offset="1" />
    </linearGradient>
    <linearGradient
       x1="32.036148"
       y1="19"
       x2="32.036148"
       y2="47.012184"
       id="linearGradient3326"
       xlink:href="#linearGradient3309"
       gradientUnits="userSpaceOnUse"
       gradientTransform="translate(-15,-17)" />
    <linearGradient
       id="linearGradient5128">
      <stop
         id="stop5130"
         style="stop-color:#ffffff;stop-opacity:1"
         offset="0" />
      <stop
         id="stop5132"
         style="stop-color:#959595;stop-opacity:1"
         offset="1" />
    </linearGradient>
    <linearGradient
       x1="86.132919"
       y1="105.105"
       x2="84.63858"
       y2="20.895"
       id="linearGradient3322"
       xlink:href="#linearGradient5128"
       gradientUnits="userSpaceOnUse"
       gradientTransform="matrix(0.2014014,0,0,0.2014015,3.1103045,3.311705)" />
  </defs>
  <g
     id="layer1">
    <path
       d="M 31.99982,28.5 C 31.99982,30.432997 24.836456,32 16,32 C 7.1635428,32 0.00017975,30.432997 0.00017975,28.5 C 0.00017975,26.567004 7.1635428,25 16,25 C 24.836456,25 31.99982,26.567004 31.99982,28.5 z"
       id="path10689"
       style="opacity:0.2;fill:url(#radialGradient2538);fill-opacity:1;fill-rule:nonzero;stroke:none;stroke-width:0.80000001;stroke-linecap:butt;stroke-linejoin:miter;marker:none;marker-start:none;marker-mid:none;marker-end:none;stroke-miterlimit:4;stroke-dashoffset:0;stroke-opacity:1;visibility:visible;display:inline;overflow:visible" />
    <path
       d="M 13.875001,2.5 C 13.126262,2.5 12.500001,3.095012 12.500001,3.84375 L 12.500001,5.5937496 C 12.026599,5.7526256 11.56725,5.9371556 11.125001,6.1562496 L 9.9062506,4.9374996 C 9.3768116,4.4080616 8.5294385,4.4080616 8.0000005,4.9374996 L 4.9375005,7.9687496 C 4.4080615,8.4981876 4.4080645,9.3455626 4.9375005,9.8749996 L 6.1562505,11.09375 C 5.9319235,11.543682 5.7556185,12.017682 5.5937505,12.5 L 3.8750005,12.5 C 3.1262615,12.5 2.4999985,13.095012 2.5000005,13.84375 L 2.5000005,18.15625 C 2.4999995,18.904988 3.1262645,19.500002 3.8750005,19.5 L 5.5937505,19.5 C 5.7556185,19.982318 5.9319235,20.456318 6.1562505,20.90625 L 4.9375005,22.125 C 4.4080615,22.654438 4.4080605,23.501812 4.9375005,24.03125 L 8.0000005,27.0625 C 8.5294375,27.591938 9.3768136,27.591936 9.9062506,27.0625 L 11.125001,25.84375 C 11.56725,26.062844 12.026599,26.247374 12.500001,26.40625 L 12.500001,28.15625 C 12.5,28.904988 13.126267,29.500002 13.875001,29.5 L 18.156251,29.5 C 18.90499,29.5 19.500001,28.904986 19.500001,28.15625 L 19.500001,26.40625 C 19.982319,26.244382 20.456319,26.068077 20.906251,25.84375 L 22.125,27.0625 C 22.654439,27.591938 23.501811,27.591938 24.03125,27.0625 L 27.09375,24.03125 C 27.623189,23.501812 27.623184,22.654436 27.09375,22.125 L 25.84375,20.875 C 26.062844,20.432751 26.247374,19.973402 26.40625,19.5 L 28.15625,19.5 C 28.904989,19.5 29.5,18.904986 29.5,18.15625 L 29.5,13.84375 C 29.500001,13.095012 28.904984,12.5 28.15625,12.5 L 26.40625,12.5 C 26.247374,12.026598 26.062844,11.567249 25.84375,11.125 L 27.09375,9.8749996 C 27.623189,9.3455616 27.623188,8.4981876 27.09375,7.9687496 L 24.03125,4.9374996 C 23.501813,4.4080616 22.654436,4.4080616 22.125,4.9374996 L 20.906251,6.1562496 C 20.456319,5.9319226 19.982319,5.7556176 19.500001,5.5937496 L 19.500001,3.84375 C 19.500002,3.095012 18.904985,2.5 18.156251,2.5 L 13.875001,2.5 z M 16.000001,12.5 C 17.932001,12.5 19.500001,14.068 19.500001,16 C 19.500001,17.932 17.932001,19.5 16.000001,19.5 C 14.068,19.5 12.500001,17.932 12.500001,16 C 12.5,14.068 14.068001,12.5 16.000001,12.5 z"
       id="rect2576"
       style="fill:url(#linearGradient3326);fill-opacity:1;fill-rule:nonzero;stroke:url(#linearGradient3328);stroke-width:1;stroke-linecap:butt;stroke-linejoin:round;marker:none;marker-start:none;marker-mid:none;marker-end:none;stroke-miterlimit:4;stroke-dasharray:none;stroke-dashoffset:0;stroke-opacity:1;visibility:visible;display:block;overflow:visible;enable-background:accumulate" />
    <path
       d="M 16.000001,7.9999996 C 11.588728,7.9999996 8.0000025,11.588727 8.0000025,16 C 8.0000025,20.411274 11.588728,24 16.000001,24 C 20.411274,24 24,20.411274 24,16 C 24,11.588727 20.411274,7.9999996 16.000001,7.9999996 z M 16.000001,11.692309 C 18.377845,11.692309 20.307694,13.622155 20.307694,16 C 20.307694,18.377847 18.377845,20.307693 16.000001,20.307693 C 13.622155,20.307693 11.69231,18.377847 11.69231,16 C 11.69231,13.622155 13.622155,11.692309 16.000001,11.692309 z"
       id="path3315"
       style="opacity:0.05;fill:#000000;fill-opacity:1;stroke:none;stroke-width:0.99956679;stroke-miterlimit:4;stroke-dasharray:none" />
    <path
       d="M 16.000001,7.6206906 C 11.379648,7.6206906 7.6206925,11.379648 7.6206925,15.999999 C 7.6206925,20.620351 11.379648,24.379309 16.000001,24.379309 C 20.620354,24.379309 24.37931,20.620351 24.37931,15.999999 C 24.37931,11.379648 20.620354,7.6206906 16.000001,7.6206906 z"
       id="path28"
       style="fill:none;stroke:url(#linearGradient3322);stroke-width:1;stroke-miterlimit:4;stroke-dasharray:none" />
  </g>
</svg>

<?xml version="1.0" encoding="UTF-8" standalone="no"?>
<!-- Created with Inkscape (http://www.inkscape.org/) -->

<svg
   xmlns:svg="http://www.w3.org/2000/svg"
   xmlns="http://www.w3.org/2000/svg"
   xmlns:xlink="http://www.w3.org/1999/xlink"
   version="1.0"
   width="32"
   height="32"
   id="svg3330">
  <defs
     id="defs3332">
    <linearGradient
       id="linearGradient10691">
      <stop
         id="stop10693"
         style="stop-color:black;stop-opacity:1"
         offset="0" />
      <stop
         id="stop10695"
         style="stop-color:black;stop-opacity:0"
         offset="1" />
    </linearGradient>
    <radialGradient
       cx="6.702713"
       cy="73.615715"
       r="7.228416"
       fx="6.702713"
       fy="73.615715"
       id="radialGradient2538"
       xlink:href="#linearGradient10691"
       gradientUnits="userSpaceOnUse"
       gradientTransform="matrix(2.2134617,0,0,0.4842001,1.1638028,-7.1447362)" />
    <linearGradient
       id="linearGradient3397">
      <stop
         id="stop3399"
         style="stop-color:#aaa;stop-opacity:1"
         offset="0" />
      <stop
         id="stop3401"
         style="stop-color:#8c8c8c;stop-opacity:1"
         offset="1" />
    </linearGradient>
    <linearGradient
       x1="25.922546"
       y1="19"
       x2="25.922546"
       y2="47.044857"
       id="linearGradient3328"
       xlink:href="#linearGradient3397"
       gradientUnits="userSpaceOnUse"
       gradientTransform="translate(-15,-17)" />
    <linearGradient
       x1="63.9995"
       y1="3.1001"
       x2="63.9995"
       y2="122.8994"
       id="linearGradient3309"
       gradientUnits="userSpaceOnUse">
      <stop
         id="stop3311"
         style="stop-color:#f6f6f6;stop-opacity:1"
         offset="0" />
      <stop
         id="stop3313"
         style="stop-color:#d2d2d2;stop-opacity:1"
         offset="1" />
    </linearGradient>
    <linearGradient
       x1="32.036148"
       y1="19"
       x2="32.036148"
       y2="47.012184"
       id="linearGradient3326"
       xlink:href="#linearGradient3309"
       gradientUnits="userSpaceOnUse"
       gradientTransform="translate(-15,-17)" />
    <linearGradient
       id="linearGradient5128">
      <stop
         id="stop5130"
         style="stop-color:white;stop-opacity:1"
         offset="0" />
      <stop
         id="stop5132"
         style="stop-color:#959595;stop-opacity:1"
         offset="1" />
    </linearGradient>
    <linearGradient
       x1="86.132919"
       y1="105.105"
       x2="84.63858"
       y2="20.895"
       id="linearGradient3322"
       xlink:href="#linearGradient5128"
       gradientUnits="userSpaceOnUse"
       gradientTransform="matrix(0.2014014,0,0,0.2014015,3.1103045,3.311705)" />
  </defs>
  <g
     id="layer1">
    <path
       d="M 31.99982,28.5 C 31.99982,30.432997 24.836456,32 16,32 7.1635428,32 1.7975e-4,30.432997 1.7975e-4,28.5 1.7975e-4,26.567004 7.1635428,25 16,25 c 8.836456,0 15.99982,1.567004 15.99982,3.5 z"
       id="path10689"
       style="opacity:0.2;fill:url(#radialGradient2538);fill-opacity:1;fill-rule:nonzero;stroke:none;stroke-width:0.80000001;marker:none;visibility:visible;display:inline;overflow:visible" />
    <path
       d="m 13.875001,2.5 c -0.748739,0 -1.375,0.595012 -1.375,1.34375 l 0,1.7499996 c -0.473402,0.158876 -0.932751,0.343406 -1.375,0.5625 l -1.2187504,-1.21875 c -0.529439,-0.529438 -1.3768121,-0.529438 -1.9062501,0 l -3.0625,3.03125 c -0.529439,0.529438 -0.529436,1.376813 0,1.90625 l 1.21875,1.2187504 c -0.224327,0.449932 -0.400632,0.923932 -0.5625,1.40625 l -1.71875,0 c -0.748739,0 -1.375002,0.595012 -1.375,1.34375 l 0,4.3125 c -1e-6,0.748738 0.626264,1.343752 1.375,1.34375 l 1.71875,0 c 0.161868,0.482318 0.338173,0.956318 0.5625,1.40625 l -1.21875,1.21875 c -0.529439,0.529438 -0.52944,1.376812 0,1.90625 l 3.0625,3.03125 c 0.529437,0.529438 1.3768131,0.529436 1.9062501,0 l 1.2187504,-1.21875 c 0.442249,0.219094 0.901598,0.403624 1.375,0.5625 l 0,1.75 c -10e-7,0.748738 0.626266,1.343752 1.375,1.34375 l 4.28125,0 c 0.748739,0 1.34375,-0.595014 1.34375,-1.34375 l 0,-1.75 c 0.482318,-0.161868 0.956318,-0.338173 1.40625,-0.5625 L 22.125,27.0625 c 0.529439,0.529438 1.376811,0.529438 1.90625,0 l 3.0625,-3.03125 c 0.529439,-0.529438 0.529434,-1.376814 0,-1.90625 l -1.25,-1.25 c 0.219094,-0.442249 0.403624,-0.901598 0.5625,-1.375 l 1.75,0 C 28.904989,19.5 29.5,18.904986 29.5,18.15625 l 0,-4.3125 C 29.500001,13.095012 28.904984,12.5 28.15625,12.5 l -1.75,0 c -0.158876,-0.473402 -0.343406,-0.932751 -0.5625,-1.375 l 1.25,-1.2500004 c 0.529439,-0.529438 0.529438,-1.376812 0,-1.90625 l -3.0625,-3.03125 c -0.529437,-0.529438 -1.376814,-0.529438 -1.90625,0 l -1.218749,1.21875 c -0.449932,-0.224327 -0.923932,-0.400632 -1.40625,-0.5625 l 0,-1.7499996 C 19.500002,3.095012 18.904985,2.5 18.156251,2.5 l -4.28125,0 z m 2.125,10 c 1.932,0 3.5,1.568 3.5,3.5 0,1.932 -1.568,3.5 -3.5,3.5 -1.932001,0 -3.5,-1.568 -3.5,-3.5 -10e-7,-1.932 1.568,-3.5 3.5,-3.5 z"
       id="rect2576"
       style="fill:url(#linearGradient3326);fill-opacity:1;fill-rule:nonzero;stroke:url(#linearGradient3328);stroke-width:1;stroke-linecap:butt;stroke-linejoin:round;stroke-miterlimit:4;stroke-opacity:1;stroke-dasharray:none;stroke-dashoffset:0;marker:none;visibility:visible;display:block;overflow:visible;enable-background:accumulate" />
    <path
       d="m 16.000001,7.9999996 c -4.411273,0 -7.9999985,3.5887274 -7.9999985,8.0000004 0,4.411274 3.5887255,8 7.9999985,8 C 20.411274,24 24,20.411274 24,16 24,11.588727 20.411274,7.9999996 16.000001,7.9999996 z m 0,3.6923094 c 2.377844,0 4.307693,1.929846 4.307693,4.307691 0,2.377847 -1.929849,4.307693 -4.307693,4.307693 -2.377846,0 -4.307691,-1.929846 -4.307691,-4.307693 0,-2.377845 1.929845,-4.307691 4.307691,-4.307691 z"
       id="path3315"
       style="opacity:0.05;fill:black;fill-opacity:1;stroke:none" />
    <path
       d="m 16.000001,7.6206906 c -4.620353,0 -8.3793085,3.7589574 -8.3793085,8.3793084 0,4.620352 3.7589555,8.37931 8.3793085,8.37931 4.620353,0 8.379309,-3.758958 8.379309,-8.37931 0,-4.620351 -3.758956,-8.3793084 -8.379309,-8.3793084 z"
       id="path28"
       style="fill:none;stroke:url(#linearGradient3322);stroke-width:1;stroke-miterlimit:4;stroke-dasharray:none" />
  </g>
</svg>
